X:3041
T:Cuckold Come Out of the Amrey
R:March
C:Trad.
O:England; Northumbria
Z:Paul Hardy's Session Tunebook 2022 (see www.paulhardy.net). Creative Commons cc by-nc-sa licenced.
M:2/2
L:1/8
Q:1/4=150
K:Edor
B2|"Em"EFGE G3A|"G"B3A B2d2|"D"D2D2 F3G|AFED FGAF|
"Em"EFGE G3A|"G"B3A B2d2|"D"A2FE d2F2|"Em"E6:|
|:B2|"G"d3B G2d2|B2G2 BcdB|"D"AGFE D2A2|F2D2 FGAF|
"G"dcBA GABc|d2G2 BcdB|"D"A2GF d2F2|"Em"E6:|

